X: 20
T: Cheng ji si han song ge
L: 1/8
M: 3/4
K: Bb
c6 [I:setbarnb 1]| 
c4-c G | 
F6- | 
F6 | 
B2c4- | 
c4c f | 
F> FF4 | 
f4g a | 
c'a2g/ a/c'2 | 
c'4-c' c'/ f'/ | 
a (3g/ a/ g/ (3c' a g | 
f6 | 
f4-f (3g/ a/ g/ | 
d fc4- | 
c6 | 
F6- | 
F A c df2 | 
[M:4/4]c2(3A G Ac4 | 
z2f4-f g/ a/ | 
c' (3d'/ c'/ d'/f'3d'/ f'/ (3c' d' f' | 
[M:3/4]c'4-c' z | 
A2c A G A | 
c6 | 
[M:4/4]F2F6 | 
[M:2/4]f2g a | 
[M:3/4]c'a2g/ a/c'2 | 
[M:4/4]c'2c' c' a (3g/ a/ g/ (3c' a g | 
[M:3/4]f> ff4 | 
f4-f (3g/ a/ g/ | 
f ac4 | 
D2F4- | 
F A c df2 | 
[M:4/4]c2(3A G Ac4 | 
[M:3/4]f4-f g/ a/ | 
c' (3d'/ c'/ d'/ f' d'/ f'/ (3c' d' f' | 
c'4c' z | 
A2c A G A | 
c4c2 | 
F2F4 | 
f2g a c' a | 
c'4-c' c' | 
a (3g/ a/ g/ (3c' a gf2f4 | 
f4-f (3g/ a/ g/ | 
d fc4 | 
[M:2/4]F4- | 
[M:3/4]F A c df2 | 
[M:4/4]c2(3a g ac4 | 
[M:3/4]d f (3g a c' (3a g a | 
(3c' d' f' d' f' (3c' d' f' | 
c'4-c' z |]

@@@ Tune index: 8688
